sharp/svg/speaker_notes.svg

<svg xmlns="http://www.w3.org/2000/svg" width="24" height="24"><path fill="none" d="M0 0h24v24H0V0z"/><path d="M22 2H2.01L2 22l4-4h16V2zM8 14H6v-2h2v2zm0-3H6V9h2v2zm0-3H6V6h2v2zm7 6h-5v-2h5v2zm3-3h-8V9h8v2zm0-3h-8V6h8v2z" fill="currentColor"/></svg>

<?xml version="1.0" encoding="utf-8"?>
<!-- Generator: Adobe Illustrator 19.1.0, SVG Export Plug-In . SVG Version: 6.00 Build 0)  -->
<svg version="1.1" xmlns="http://www.w3.org/2000/svg" xmlns:xlink="http://www.w3.org/1999/xlink" x="0px" y="0px" width="24px"
	 height="24px" viewBox="0 0 24 24" enable-background="new 0 0 24 24" xml:space="preserve">
<g id="Bounding_Boxes">
	<g id="ui_x5F_spec_x5F_header_copy_3" display="none">
	</g>
	<path fill="none" d="M0,0h24v24H0V0z"/>
</g>
<g id="Sharp" fill="currentColor">
	<g id="ui_x5F_spec_x5F_header_copy_4" display="none">
	</g>
	<path d="M22,2H2.01L2,22l4-4h16V2z M8,14H6v-2h2V14z M8,11H6V9h2V11z M8,8H6V6h2V8z M15,14h-5v-2h5V14z M18,11h-8V9h8V11z M18,8h-8
		V6h8V8z"/>
</g>
</svg>
